X:707
T:
N:Staikstrik,
S:efter »Florsen» i Burs;
H:spelades, då steken bars in under bröllopsmåltiden.
O:Gotland, Burs
R:marsch
M:3/4
L:1/8
K:F
a2 (ab)(ag)|(ag)(fe)(de)|(fe)(fg)(a^c)|
(d^c)(de)(fg)|a2 (ab)(ag)|(ag)(fe)(de)|(fe)(fg)(a^c)|
d2 z2 z2::(ge)(cd)(ef)|(gf)(ef) g2|(af)(de)(fg)|(ag)(ab) a2|
b z g z g z|{/g}a z f z f z|{/f}(eg)(bg) (eg)|f2 z2 z2:|

